X:562
T: "Die Trennung"
N: Z1242
O: Europa, Mitteleuropa, Oesterreich
R: Liebes - Lied, verlassene Liebe
M: 3/4
L: 1/16
K: F
C2C2 | F4F2A2G4 | F2A2c4z2
cB | A2c2A2F2G2E2 | F8
C2C2 | F4F2A2G4 | F2A2c4z2
cB | A2c2A2F2G2E2 | F8
B2B2 | A2c2B2G2A2F2 | G8
B2B2 | A2c2B2G2A2F2 | G8
C2C2 | F4F2A2G4 | F2A2c4z2
cB | A2c2A2F2G2E2 | F8

